resources/haticons/SVG/save.svg

<!-- Generated by IcoMoon.io -->
<svg version="1.1" xmlns="http://www.w3.org/2000/svg" width="24" height="24" viewBox="0 0 24 24">
<title>save</title>
<path d="M15 9v-3.984h-9.984v3.984h9.984zM12 18.984q1.219 0 2.109-0.891t0.891-2.109-0.891-2.109-2.109-0.891-2.109 0.891-0.891 2.109 0.891 2.109 2.109 0.891zM17.016 3l3.984 3.984v12q0 0.797-0.609 1.406t-1.406 0.609h-13.969q-0.844 0-1.43-0.586t-0.586-1.43v-13.969q0-0.844 0.586-1.43t1.43-0.586h12z"></path>
</svg>

<svg xmlns="http://www.w3.org/2000/svg" width="24" height="24"><path d="M15 9V5.016H5.016V9H15zm-3 9.984q1.219 0 2.109-.891T15 15.984t-.891-2.109T12 12.984t-2.109.891T9 15.984t.891 2.109 2.109.891zM17.016 3L21 6.984v12q0 .797-.609 1.406t-1.406.609H5.016q-.844 0-1.43-.586T3 18.983V5.014q0-.844.586-1.43t1.43-.586h12z"/></svg>
